T: Johnny The Jumper
M: 6/8
L: 1/8
K: Ador
eAA cBA|eAA f^ga|eAA c2e|dBG Bcd|!eAA cBA|edc B2A|GFG gfg|dBG Bcd:||!
cBA a^ga|cBA Bcd|cBA gfg|dBG Bcd|!cBA a^ga|edc B2A|GFG gfg|dBG Bcd:||!
